icons/emphasis.svg

<svg viewBox="0 0 24 24" fill="currentColor" xmlns="http://www.w3.org/2000/svg">
    <path d="M12 19C12.8284 19 13.5 19.6716 13.5 20.5C13.5 21.3284 12.8284 22 12 22C11.1716 22 10.5 21.3284 10.5 20.5C10.5 19.6716 11.1716 19 12 19ZM6.5 19C7.32843 19 8 19.6716 8 20.5C8 21.3284 7.32843 22 6.5 22C5.67157 22 5 21.3284 5 20.5C5 19.6716 5.67157 19 6.5 19ZM17.5 19C18.3284 19 19 19.6716 19 20.5C19 21.3284 18.3284 22 17.5 22C16.6716 22 16 21.3284 16 20.5C16 19.6716 16.6716 19 17.5 19ZM18 3V5H8V9H17V11H8V15H18V17H6V3H18Z"/>
</svg>

<svg xmlns="http://www.w3.org/2000/svg" viewBox="0 0 24 24">
    <g>
        <path fill="none" d="M0 0h24v24H0z"/>
        <path d="M12 19a1.5 1.5 0 1 1 0 3 1.5 1.5 0 0 1 0-3zm-5.5 0a1.5 1.5 0 1 1 0 3 1.5 1.5 0 0 1 0-3zm11 0a1.5 1.5 0 1 1 0 3 1.5 1.5 0 0 1 0-3zM18 3v2H8v4h9v2H8v4h10v2H6V3h12z"/>
    </g>
</svg>
